src/icons/on.svg

<svg xmlns="http://www.w3.org/2000/svg"  viewBox="0 0 50 50" width="32px" height="32px"><path d="M 36 11 L 14 11 C 6.28125 11 0 17.28125 0 25 C 0 32.71875 6.28125 39 14 39 L 36 39 C 43.71875 39 50 32.71875 50 25 C 50 17.28125 43.71875 11 36 11 Z M 36 37 C 29.382813 37 24 31.617188 24 25 C 24 18.382813 29.382813 13 36 13 C 42.617188 13 48 18.382813 48 25 C 48 31.617188 42.617188 37 36 37 Z"/></svg>

<svg role="img" viewBox="0 0 50 50" xmlns="http://www.w3.org/2000/svg"><path d="M36 11H14C6.281 11 0 17.281 0 25s6.281 14 14 14h22c7.719 0 14-6.281 14-14s-6.281-14-14-14m0 26c-6.617 0-12-5.383-12-12s5.383-12 12-12 12 5.383 12 12-5.383 12-12 12"/></svg>
